X:1
T:Title
%%score { ( 1 3 ) | ( 2 4 ) }
L:1/8
Q:1/4=108
M:4/4
K:C
V:1 treble nm="Grand Piano"
V:3 treble 
V:2 bass 
V:4 bass 
V:1
 [Ec]2 [FB]>[FB] [Gc]2 [EG]2 | A2 c2 G4 | B2 B>c d2 G2 | [Ge]6 z2 | [Ae]2 [Be]>[Be] [Ae]2 [^Gd]2 | %5
w: A.~J.~Showalter * * * *|||||
 [Ac]2 [FA]2 [EG]4 | B2 B>c d2 G2 | [Ec]6 z2 | [FA]2 [FA]>[GB] [Ac]2 [Ad]2 | [^Ge]6 z2 | %10
w: |||||
 A2 A>[GB] [Ac]2 [FA]2 | [EG]6 z2 | [EG]2 [Gc]>d e2 e2 | f2 e2 d4 | d2 B>c d2 e2 | c2 A2 [EG]4 | %16
w: ||||||
 G2 B>c d2 e2 | [Ec]6 z2 |] %18
w: ||
V:2
 [C,G,]2 [D,G,]>[D,G,] [E,G,]2 [C,C]2 | [F,CF]2 [A,CF]2 [CE]4 | %2
 [G,DF]2 [G,DF]>[G,CE] [G,B,G]2[K:bass] [G,B,]2 | [C,C]6 z2 | [A,C]2 [^G,D]>[G,D] [A,C]2 [E,B,]2 | %5
 [F,A,]2 [F,C]2 [C,C]4 | [G,DF]2 [G,DF]>[G,CE] [G,B,G]2 [G,B,F]2 | [C,C]6 z2 | %8
 [F,C]2 [F,C]>[F,C] [F,C]2 [F,A,]2 | B,4 z4 | [F,C]2 [F,CF]>[F,C] [F,C]2 [F,C]2 | [C,C]6 z2 | %12
 [C,C]2 [E,C]>[K:treble][G,B,G] [CG]2 [CG]2 | [B,DG]2 [CG]2 [G,B,G]4 | %14
 [G,B,G]2 [G,DF]>[G,CE] [G,B,F]2 [G,B,G]2 | [A,CE]2 [F,CF]2 [C,C]4 | %16
 [G,CE]2 [G,DF]>[G,CE] [G,B,F]2 [G,B,G]2 | [C,C]6 z2 |] %18
V:3
 x8 | x8 | x8 | x8 | x8 | x8 | x8 | x8 | x8 | z4 D2 z2 | x8 | x8 | x8 | x8 | x8 | x8 | x8 | x8 |] %18
V:4
 x8 | x8 | x6[K:bass] x2 | x8 | x8 | x8 | x8 | x8 | x8 | E,6 z2 | x8 | x8 | x7/2[K:treble] x9/2 | %13
 x8 | x8 | x8 | x8 | x8 |] %18

